.local/share/icons/Gruvbox-Plus-Dark/panel/16/everpad-mono.svg

<svg xmlns="http://www.w3.org/2000/svg" width="16" height="16" version="1.1" xml:space="preserve">
 <defs>
  <style id="current-color-scheme" type="text/css">
   .ColorScheme-Text { color:#ebdbb2; } .ColorScheme-Highlight { color:#458588; }
  </style>
 </defs>
 <path style="fill:currentColor" class="ColorScheme-Text" d="M 7.0273438,1.0019531 C 6.5601946,0.99258208 6.055953,1.0355317 5.8920991,1.0800781 5.6294915,1.151787 5.3361439,1.294626 5.1772553,1.5195312 5.0691227,1.6727276 4.9975678,1.8631409 4.9975678,2.1347656 c 0,0.1531964 0.00255,-0.086211 0.00586,0.2321328 0.00441,0.3183442 0.00977,0.4335937 0.00977,0.4335937 0,0.2835762 -0.2368976,0.2246094 -0.5292968,0.2246094 l -1.249521,0 c -1.2834671,0 -1.2900724,2.053923 -1.203125,3.0198204 0.047446,0.3607176 0.4519566,2.8993743 0.8359375,3.671875 0.1511649,0.2966141 0.2505695,0.4251751 0.5429687,0.5566411 0.6510022,0.271625 2.1424992,0.571063 2.8398438,0.660156 0.6940343,0.08475 1.1343841,0.268492 1.3925781,-0.261719 0,0 0.052176,-0.132555 0.125,-0.328125 0.2250923,-0.6660234 0.2558594,-1.2544267 0.2558594,-1.6835938 0,-0.046719 0.068359,-0.046719 0.068359,0 0,0.3020468 -0.060474,1.3711478 0.7714843,1.6601558 0.3277079,0.114082 1.0095979,0.210615 1.6992192,0.291016 0.62452,0.06845 1.076172,0.310661 1.076172,1.873047 C 11.638672,13.435061 11.436883,14 10.363281,14 9.4971176,14 9,14.182459 9,13.512093 c 0,-0.543249 0.5173707,-0.484375 0.92673,-0.484375 0.180956,0 0.04687,-0.131069 0.04687,-0.466796 0,-0.334643 0.215594,-0.524951 0.01367,-0.529297 C 8.5738233,11.993595 8.0000001,12.027225 8,13.750375 8.000007,15.312761 8.5576343,15 10.5625,15 c 1.572335,0 2.12685,-0.05168 2.773438,-2.011719 0.1302,-0.386793 0.441075,-1.570961 0.630859,-3.5527341 0.120276,-1.2559926 -0.111505,-5.0417081 -0.296875,-6 C 13.566203,2.8792595 13.221656,2.7034166 12.916016,2.5925937 11.626149,2.0667283 10.506347,2.0166932 9.0917969,1.9754062 9.0311103,1.5853532 8.7514598,1.3591025 8.4414062,1.2363281 8.0254269,1.0728101 7.4944929,1.0113242 7.0273438,1.0019531 Z m 4.0117182,5 C 11.880711,6.0427837 12,7.209164 12,8 11.644252,7.7636088 11.208631,7.6214912 10.728516,7.5957031 10.473996,7.5785114 10.231382,7.6048678 10,7.6542969 10.067969,6.8999942 10.281289,5.9589723 11.039062,6.0019531 Z"/>
</svg>

<svg width="16" height="16" version="1.1" xmlns="http://www.w3.org/2000/svg">
 <defs>
  <style id="current-color-scheme" type="text/css">
   .ColorScheme-Text { color:#ebdbb2; } .ColorScheme-Highlight { color:#458588; } .ColorScheme-NeutralText { color:#fe8019; } .ColorScheme-PositiveText { color:#689d6a; } .ColorScheme-NegativeText { color:#fb4934; }
  </style>
 </defs>
 <path class="ColorScheme-Text" d="m5.892 1.08c-0.2626 0.07171-0.556 0.2145-0.7148 0.4395-0.1081 0.1532-0.1797 0.3436-0.1797 0.6152 0.00561 0.2086 0.01045 0.445 0.01563 0.6657 0 0.2836-0.2369 0.2246-0.5293 0.2246h-1.25c-1.283 0-1.29 2.054-1.203 3.02 0.04745 0.3607 0.452 2.899 0.8359 3.672 0.1512 0.2966 0.2506 0.4252 0.543 0.5566 0.651 0.2716 2.142 0.5711 2.84 0.6602 0.694 0.08475 1.134 0.2685 1.393-0.2617 0.1669-0.4253 0.3809-0.9852 0.3809-2.012 0-0.04672 0.06836-0.04672 0.06836 0 0 0.302-0.06047 1.371 0.7715 1.66 0.3277 0.1141 1.01 0.2106 1.699 0.291 0.6245 0.06845 1.076 0.3107 1.076 1.873-5e-6 0.9507-0.2018 1.516-1.275 1.516-0.8662 0-1.363 0.1825-1.363-0.4879 0-0.5432 0.5174-0.4844 0.9267-0.4844 0.181 0 0.04687-0.1311 0.04687-0.4668 0-0.3346 0.2156-0.525 0.01367-0.5293-1.413-0.03803-1.987-0.0044-1.987 1.719 7e-6 1.562 0.5576 1.25 2.562 1.25 1.572 0 2.127-0.05168 2.773-2.012 0.1302-0.3868 0.4411-1.571 0.6309-3.553 0.1203-1.256-0.1115-5.042-0.2969-6-0.1037-0.5563-0.4483-0.7321-0.7539-0.843-1.29-0.5259-2.41-0.5759-3.824-0.6172-0.06069-0.3901-0.3403-0.6163-0.6504-0.7391-0.9122-0.3585-2.324-0.2176-2.549-0.1563zm6.108 6.92c-0.4732-0.3145-1.193-0.518-2-0.3457 0.06797-0.7543 0.2813-1.695 1.081-1.653s0.9188 1.208 0.9188 1.999z" fill="currentColor"/>
</svg>
